Dominus_Funeral/22/apps/plasma.svg

<svg xmlns="http://www.w3.org/2000/svg" width="24" height="24"><defs><linearGradient id="a"><stop stop-color="#eff0f1"/><stop offset="1" stop-color="#fcfcfc"/></linearGradient></defs><path d="M6.652 1.304c-.74 0-1.337.596-1.337 1.337 0 .74.596 1.337 1.337 1.337.74 0 1.337-.596 1.337-1.337 0-.74-.596-1.337-1.337-1.337zm8.404 0L12 4.36l4.583 4.584L12 13.528l3.056 3.055L19.64 12l3.056-3.056-3.056-3.056zM3.31 9.326a2 2 0 0 0-2.006 2.005c0 1.112.894 2.006 2.006 2.006a2 2 0 0 0 2.005-2.006A2 2 0 0 0 3.31 9.326zm6.017 8.022a2.669 2.669 0 0 0-2.675 2.674 2.669 2.669 0 0 0 2.674 2.674A2.669 2.669 0 0 0 12 20.022a2.669 2.669 0 0 0-2.674-2.674z" fill="#1a1a1a"/></svg>

<?xml version="1.0" encoding="UTF-8" standalone="no"?>
<svg
   xmlns:dc="http://purl.org/dc/elements/1.1/"
   xmlns:cc="http://creativecommons.org/ns#"
   xmlns:rdf="http://www.w3.org/1999/02/22-rdf-syntax-ns#"
   xmlns:svg="http://www.w3.org/2000/svg"
   xmlns="http://www.w3.org/2000/svg"
   xmlns:sodipodi="http://sodipodi.sourceforge.net/DTD/sodipodi-0.dtd"
   xmlns:inkscape="http://www.inkscape.org/namespaces/inkscape"
   width="24"
   height="24"
   version="1.1"
   id="svg11"
   sodipodi:docname="plasma.svg"
   inkscape:version="0.92.4 (5da689c313, 2019-01-14)">
  <metadata
     id="metadata15">
    <rdf:RDF>
      <cc:Work
         rdf:about="">
        <dc:format>image/svg+xml</dc:format>
        <dc:type
           rdf:resource="http://purl.org/dc/dcmitype/StillImage" />
        <dc:title></dc:title>
      </cc:Work>
    </rdf:RDF>
  </metadata>
  <sodipodi:namedview
     pagecolor="#ffffff"
     bordercolor="#666666"
     borderopacity="1"
     objecttolerance="10"
     gridtolerance="10"
     guidetolerance="10"
     inkscape:pageopacity="0"
     inkscape:pageshadow="2"
     inkscape:window-width="1138"
     inkscape:window-height="480"
     id="namedview13"
     showgrid="false"
     inkscape:zoom="9.8333333"
     inkscape:cx="1.0677966"
     inkscape:cy="12"
     inkscape:window-x="0"
     inkscape:window-y="25"
     inkscape:window-maximized="0"
     inkscape:current-layer="svg11" />
  <defs
     id="defs7">
    <linearGradient
       id="a">
      <stop
         stop-color="#eff0f1"
         id="stop2" />
      <stop
         offset="1"
         stop-color="#fcfcfc"
         id="stop4" />
    </linearGradient>
  </defs>
  <path
     d="m 6.652,1.304 c -0.74,0 -1.337,0.596 -1.337,1.337 0,0.74 0.596,1.337 1.337,1.337 0.74,0 1.337,-0.596 1.337,-1.337 0,-0.74 -0.596,-1.337 -1.337,-1.337 z m 8.404,0 L 12,4.36 16.583,8.944 12,13.528 15.056,16.583 19.64,12 22.696,8.944 19.64,5.888 Z M 3.31,9.326 a 2,2 0 0 0 -2.006,2.005 c 0,1.112 0.894,2.006 2.006,2.006 A 2,2 0 0 0 5.315,11.331 2,2 0 0 0 3.31,9.326 Z m 6.017,8.022 A 2.669,2.669 0 0 0 6.652,20.022 2.669,2.669 0 0 0 9.326,22.696 2.669,2.669 0 0 0 12,20.022 2.669,2.669 0 0 0 9.326,17.348 Z"
     id="path9"
     inkscape:connector-curvature="0"
     style="fill:#1a1a1a" />
</svg>
